public/assets/dashboard/card1.svg

<svg viewBox="0 0 100 100" xmlns="http://www.w3.org/2000/svg" id="Documents-Question--Streamline-Ux.svg" height="100" width="100"><desc>Documents Question Streamline Illustration: https://streamlinehq.com</desc><path d="M4.0894 50C4.0894 86.5311 43.6355 109.3631 75.2723 91.0975C89.9551 82.6204 99 66.9542 99 50C99 13.4689 59.4539 -9.3631 27.817 8.9025C13.1343 17.3796 4.0894 33.0458 4.0894 50Z" fill="#d9edff" stroke-width="1"></path><path d="M72.2838 33.3812C72.3897 32.261 71.5675 31.2672 70.4473 31.1614L48.1433 29.0627L45.5867 21.3323C45.2339 20.2639 44.0815 19.6842 43.0134 20.0379L2.3976 33.4678C1.3292 33.8205 0.7495 34.973 1.1032 36.041L19.6488 92.1261C20.001 93.1949 21.1536 93.7752 22.222 93.4216L30.1601 90.7973L64.532 94.0314C65.6521 94.1366 66.6454 93.3138 66.7506 92.1937Z" fill="#ffd500" stroke-width="1"></path><path d="M9.5177 23.2753L56.3651 22.7553L57.066 85.8978L10.2186 86.4178Z" fill="#ffd500" stroke-width="1"></path><path d="M19.2412 86.1753L24.9401 25.3322L69.558 29.5114L63.8591 90.3545Z" fill="#ffffff" stroke="#000000" stroke-linecap="round" stroke-linejoin="round" stroke-width="1"></path><path d="M30.4544 31.986L38.5668 32.7453" fill="none" stroke="#000000" stroke-linecap="round" stroke-linejoin="round" stroke-width="1"></path><path d="M29.8849 38.0697L48.1374 39.7805" fill="none" stroke="#000000" stroke-linecap="round" stroke-linejoin="round" stroke-width="1"></path><path d="M29.3154 44.1547L41.483 45.2936" fill="none" stroke="#000000" stroke-linecap="round" stroke-linejoin="round" stroke-width="1"></path><path d="M28.7448 50.2385L42.941 51.5684" fill="none" stroke="#000000" stroke-linecap="round" stroke-linejoin="round" stroke-width="1"></path><path d="M28.1753 56.3234L34.2591 56.8929" fill="none" stroke="#000000" stroke-linecap="round" stroke-linejoin="round" stroke-width="1"></path><path d="M27.6047 62.4072L49.9146 64.4964" fill="none" stroke="#000000" stroke-linecap="round" stroke-linejoin="round" stroke-width="1"></path><path d="M27.0352 68.491L41.2315 69.8209" fill="none" stroke="#000000" stroke-linecap="round" stroke-linejoin="round" stroke-width="1"></path><path d="M26.4657 74.5759L52.8307 77.0448" fill="none" stroke="#000000" stroke-linecap="round" stroke-linejoin="round" stroke-width="1"></path><path d="M25.8951 80.6597L38.0638 81.7998" fill="none" stroke="#000000" stroke-linecap="round" stroke-linejoin="round" stroke-width="1"></path><path d="M42.6231 33.1261L52.7631 34.0752" fill="none" stroke="#000000" stroke-linecap="round" stroke-linejoin="round" stroke-width="1"></path><path d="M38.3153 57.2725L48.4553 58.2228" fill="none" stroke="#000000" stroke-linecap="round" stroke-linejoin="round" stroke-width="1"></path><path d="M42.1201 82.1795L52.2613 83.1297" fill="none" stroke="#000000" stroke-linecap="round" stroke-linejoin="round" stroke-width="1"></path><path d="M2.0178 31.6266L44.7588 18.1569L63.1266 76.4406L20.3856 89.9102Z" fill="#ffffff" stroke="#000000" stroke-linecap="round" stroke-linejoin="round" stroke-width="1"></path><path d="M9.6832 35.6175L17.454 33.1688" fill="none" stroke="#000000" stroke-linecap="round" stroke-linejoin="round" stroke-width="1"></path><path d="M11.5197 41.4462L29.0046 35.9354" fill="none" stroke="#000000" stroke-linecap="round" stroke-linejoin="round" stroke-width="1"></path><path d="M13.3574 47.2749L25.0136 43.6007" fill="none" stroke="#000000" stroke-linecap="round" stroke-linejoin="round" stroke-width="1"></path><path d="M15.1939 53.1024L28.7934 48.8172" fill="none" stroke="#000000" stroke-linecap="round" stroke-linejoin="round" stroke-width="1"></path><path d="M17.0304 58.9311L22.8591 57.0946" fill="none" stroke="#000000" stroke-linecap="round" stroke-linejoin="round" stroke-width="1"></path><path d="M18.867 64.7598L40.2373 58.0247" fill="none" stroke="#000000" stroke-linecap="round" stroke-linejoin="round" stroke-width="1"></path><path d="M20.7035 70.5873L34.303 66.3021" fill="none" stroke="#000000" stroke-linecap="round" stroke-linejoin="round" stroke-width="1"></path><path d="M22.5412 76.416L47.7969 68.4566" fill="none" stroke="#000000" stroke-linecap="round" stroke-linejoin="round" stroke-width="1"></path><path d="M24.3777 82.2447L36.0339 78.5705" fill="none" stroke="#000000" stroke-linecap="round" stroke-linejoin="round" stroke-width="1"></path><path d="M21.3394 31.9444L31.0535 28.8836" fill="none" stroke="#000000" stroke-linecap="round" stroke-linejoin="round" stroke-width="1"></path><path d="M26.7445 55.8702L36.4586 52.8082" fill="none" stroke="#000000" stroke-linecap="round" stroke-linejoin="round" stroke-width="1"></path><path d="M39.9193 77.3461L49.6334 74.2853" fill="none" stroke="#000000" stroke-linecap="round" stroke-linejoin="round" stroke-width="1"></path><path d="M12.203 22.2303H57.0163V83.3397H12.203Z" fill="#ffffff" stroke="#000000" stroke-linecap="round" stroke-linejoin="round" stroke-width="1"></path><path d="M67.5371 21.49C67.5371 31.7882 78.6852 38.2245 87.6036 33.0754C91.7427 30.6857 94.2924 26.2694 94.2924 21.49C94.2924 11.1919 83.1444 4.7556 74.226 9.9046C70.0869 12.2943 67.5371 16.7107 67.5371 21.49Z" fill="#ffd500" stroke-width="1"></path><path d="M88.5444 38.8741C88.3534 38.53 87.8955 38.4464 87.5953 38.7009C86.5928 39.5432 84.6092 41.3406 84.3921 42.5305C84.1002 44.1292 85.1592 45.6619 86.7577 45.9544L85.7932 45.7777C84.7273 45.5838 83.7058 46.2899 83.5106 47.3556L77.8717 78.2359C77.6765 79.3021 78.3832 80.3244 79.4496 80.5185L81.3798 80.8744C82.4457 81.0683 83.4672 80.3622 83.6624 79.2965L89.3037 48.4162C89.5004 47.3496 88.794 46.3258 87.727 46.1312L86.7625 45.9556C88.3634 46.2472 89.8972 45.1843 90.1864 43.5829C90.4035 42.3988 89.1839 40.0166 88.5444 38.8741Z" fill="#ffd500" stroke-width="1"></path><path d="M81.2019 79.1055C81.0072 80.1715 79.9853 80.8779 78.9193 80.6834L76.989 80.3275C75.9231 80.1329 75.2171 79.1107 75.4123 78.0449L81.0536 47.1646C81.2499 46.0994 82.2721 45.3948 83.3374 45.5902L85.2664 45.9461C86.3328 46.1402 87.0395 47.1626 86.8443 48.2287Z" fill="#ffd500" stroke="#000000" stroke-linecap="round" stroke-linejoin="round" stroke-width="1"></path><path d="M77.1789 68.3972L82.9684 69.4555" fill="none" stroke="#000000" stroke-linecap="round" stroke-linejoin="round" stroke-width="1"></path><path d="M75.4159 78.0473C73.284 77.658 71.8715 75.6139 72.2613 73.4821L74.3766 61.9018" fill="none" stroke="#000000" stroke-linecap="round" stroke-linejoin="round" stroke-width="1"></path><path d="M87.727 43.4002C87.3197 45.6286 84.6528 46.5804 82.9266 45.1134C82.1255 44.4326 81.7484 43.3761 81.9374 42.3419C82.2293 40.7427 85.7137 38.046 85.7137 38.046S88.0212 41.8009 87.727 43.4002Z" fill="#ffffff" stroke="#000000" stroke-linecap="round" stroke-linejoin="round" stroke-width="1"></path><path d="M30.2337 69.7236C30.229 72.5931 33.3324 74.3917 35.8198 72.961C36.978 72.2948 37.6911 71.0597 37.6889 69.7236C37.6936 66.8541 34.5902 65.0556 32.1028 66.4862C30.9446 67.1524 30.2315 68.3875 30.2337 69.7236Z" fill="#ffd500" stroke="#000000" stroke-linecap="round" stroke-linejoin="round" stroke-width="1"></path><path d="M34.0491 63.1261C32.5492 63.1248 31.3336 61.9092 31.3323 60.4093V57.9357C31.3506 54.7134 33.3878 51.8487 36.4254 50.7735C39.7782 49.569 41.7122 46.0593 40.9396 42.5816C39.7434 37.2818 33.2585 35.2644 29.2669 38.9503C27.8231 40.2836 27.0005 42.1585 26.9972 44.1239C27.041 46.2148 24.8048 47.569 22.9721 46.5615C22.0859 46.0742 21.5436 45.135 21.5648 44.1239C21.5621 37.2241 27.1624 31.6334 34.0621 31.6479C42.6421 31.6479 45.7302 38.9477 46.2558 41.4747C47.6038 47.6091 44.174 53.7876 38.2548 55.888C37.3767 56.1888 36.7813 57.0077 36.7659 57.9357V60.4093C36.7646 61.9092 35.549 63.1248 34.0491 63.1262Z" fill="#ffd500" stroke="#000000" stroke-linecap="round" stroke-linejoin="round" stroke-width="1"></path><path d="M91.5697 29.9501C93.1606 31.4804 95.8114 30.7145 96.3412 28.5716C96.5774 27.616 96.307 26.606 95.6247 25.8963L90.8946 21.1626L86.8408 25.2165Z" fill="#ffffff" stroke="#000000" stroke-linecap="round" stroke-linejoin="round" stroke-width="1"></path><path d="M90.2184 24.5402C83.4565 31.3023 71.9101 28.2087 69.4349 18.9716C66.9596 9.7346 75.412 1.2819 84.6492 3.7569C86.7556 4.3213 88.6764 5.4302 90.2184 6.9723C95.0709 11.823 95.0709 19.6895 90.2184 24.5402Z" fill="#ffffff" stroke="#000000" stroke-linecap="round" stroke-linejoin="round" stroke-width="1"></path><path d="M72.8343 15.7562C72.8343 22.3766 80.0011 26.5143 85.7345 23.2041C88.3953 21.6679 90.0345 18.8288 90.0345 15.7562C90.0345 9.1359 82.8678 4.9982 77.1344 8.3083C74.4735 9.8446 72.8343 12.6837 72.8343 15.7562Z" fill="#ffd500" stroke="#000000" stroke-linecap="round" stroke-linejoin="round" stroke-width="1"></path></svg>

<svg xmlns="http://www.w3.org/2000/svg" width="100" height="100"><desc>Documents Question Streamline Illustration: https://streamlinehq.com</desc><path fill="#d9edff" d="M4.09 50c0 36.531 39.546 59.363 71.182 41.098A47.46 47.46 0 0 0 99 50C99 13.469 59.454-9.363 27.817 8.903A47.46 47.46 0 0 0 4.089 50"/><path fill="#ffd500" d="M72.284 33.381a2.037 2.037 0 0 0-1.837-2.22l-22.304-2.098-2.556-7.73a2.036 2.036 0 0 0-2.574-1.295L2.398 33.468a2.036 2.036 0 0 0-1.295 2.573L19.65 92.126a2.036 2.036 0 0 0 2.573 1.296l7.938-2.625 34.372 3.234a2.037 2.037 0 0 0 2.219-1.837Z"/><path fill="#ffd500" d="m9.518 23.275 46.847-.52.701 63.143-46.847.52Z"/><path fill="#fff" stroke="#000" stroke-linecap="round" stroke-linejoin="round" d="m19.241 86.175 5.7-60.843 44.617 4.18-5.699 60.843Z"/><path fill="none" stroke="#000" stroke-linecap="round" stroke-linejoin="round" d="m30.454 31.986 8.113.76M29.885 38.07l18.252 1.71M29.315 44.155l12.168 1.139M28.745 50.239l14.196 1.33M28.175 56.323l6.084.57M27.605 62.407l22.31 2.09M27.035 68.491l14.196 1.33M26.466 74.576l26.365 2.469M25.895 80.66l12.169 1.14M42.623 33.126l10.14.95M38.315 57.273l10.14.95M42.12 82.18l10.141.95"/><path fill="#fff" stroke="#000" stroke-linecap="round" stroke-linejoin="round" d="m2.018 31.627 42.74-13.47L63.128 76.44 20.386 89.91Z"/><path fill="none" stroke="#000" stroke-linecap="round" stroke-linejoin="round" d="m9.683 35.618 7.771-2.45M11.52 41.446l17.485-5.51M13.357 47.275 25.014 43.6M15.194 53.102l13.6-4.285M17.03 58.931l5.83-1.836M18.867 64.76l21.37-6.735M20.704 70.587l13.599-4.285M22.541 76.416l25.256-7.96M24.378 82.245l11.656-3.675M21.34 31.944l9.714-3.06M26.745 55.87l9.714-3.062M39.92 77.346l9.713-3.06"/><path fill="#fff" stroke="#000" stroke-linecap="round" stroke-linejoin="round" d="M12.203 22.23h44.813v61.11H12.203Z"/><path fill="#ffd500" d="M67.537 21.49c0 10.298 11.148 16.735 20.067 11.585a13.38 13.38 0 0 0 6.688-11.585c0-10.298-11.148-16.734-20.066-11.585a13.38 13.38 0 0 0-6.689 11.585M88.544 38.874a.624.624 0 0 0-.949-.173c-1.002.842-2.986 2.64-3.203 3.83a2.943 2.943 0 0 0 2.366 3.423l-.965-.176a1.963 1.963 0 0 0-2.282 1.578l-5.64 30.88a1.96 1.96 0 0 0 1.579 2.282l1.93.356a1.963 1.963 0 0 0 2.282-1.578l5.642-30.88a1.96 1.96 0 0 0-1.577-2.285l-.965-.175a2.943 2.943 0 0 0 3.424-2.373c.217-1.184-1.002-3.566-1.642-4.709"/><path fill="#ffd500" stroke="#000" stroke-linecap="round" stroke-linejoin="round" d="M81.202 79.106a1.96 1.96 0 0 1-2.283 1.577l-1.93-.356a1.96 1.96 0 0 1-1.577-2.282l5.642-30.88a1.96 1.96 0 0 1 2.283-1.575l1.93.356a1.96 1.96 0 0 1 1.577 2.283Z"/><path fill="none" stroke="#000" stroke-linecap="round" stroke-linejoin="round" d="m77.179 68.397 5.79 1.058M75.416 78.047a3.923 3.923 0 0 1-3.155-4.565l2.116-11.58"/><path fill="#fff" stroke="#000" stroke-linecap="round" stroke-linejoin="round" d="M87.727 43.4c-.407 2.229-3.074 3.18-4.8 1.713a2.94 2.94 0 0 1-.99-2.771c.292-1.6 3.777-4.296 3.777-4.296s2.307 3.755 2.013 5.354"/><path fill="#ffd500" stroke="#000" stroke-linecap="round" stroke-linejoin="round" d="M30.234 69.724c-.005 2.87 3.098 4.668 5.586 3.237a3.73 3.73 0 0 0 1.869-3.237c.005-2.87-3.099-4.668-5.586-3.238a3.73 3.73 0 0 0-1.87 3.238M34.05 63.126a2.72 2.72 0 0 1-2.718-2.717v-2.473a7.64 7.64 0 0 1 5.093-7.163 7.074 7.074 0 0 0 4.515-8.191c-1.197-5.3-7.681-7.318-11.673-3.632a7.06 7.06 0 0 0-2.27 5.174c.044 2.09-2.192 3.445-4.025 2.438a2.72 2.72 0 0 1-1.407-2.438c-.003-6.9 5.597-12.49 12.497-12.476 8.58 0 11.668 7.3 12.194 9.827a12.457 12.457 0 0 1-8.001 14.413 2.2 2.2 0 0 0-1.49 2.048v2.473a2.72 2.72 0 0 1-2.716 2.717"/><path fill="#fff" stroke="#000" stroke-linecap="round" stroke-linejoin="round" d="M91.57 29.95c1.59 1.53 4.241.765 4.771-1.378a2.87 2.87 0 0 0-.716-2.676l-4.73-4.733-4.054 4.053Z"/><path fill="#fff" stroke="#000" stroke-linecap="round" stroke-linejoin="round" d="M90.218 24.54c-6.761 6.762-18.308 3.669-20.783-5.568s5.977-17.69 15.214-15.215a12.4 12.4 0 0 1 5.57 3.215c4.852 4.851 4.852 12.717 0 17.568"/><path fill="#ffd500" stroke="#000" stroke-linecap="round" stroke-linejoin="round" d="M72.834 15.756c0 6.62 7.167 10.758 12.9 7.448a8.6 8.6 0 0 0 4.3-7.448c0-6.62-7.166-10.758-12.9-7.448a8.6 8.6 0 0 0-4.3 7.448"/></svg>
